X:236
T: ICH GIENG EINMAL SPAZIEREN
N: E0818A
O: Europa, Mitteleuropa, Deutschland, Hessen; Frankfurt a.M.; Oberhessen
R: Kilt - Lied
M: 4/4
L: 1/8
K: A
E2 | A3EC2E2 | A3GA2
c2 | B3AG2A2 | B4z2
A2 | A2c2c2c2 | c3de2
c2 | c2B2B2B2 | B3cd2
e2 | c2c2B2B2 | A4z2

@@@ Tune index: 4549
